X:1
T:Belle Stelluzze d'oro
T:Florido (Silvestri?)
T:Source : Ariette di Musica a uno e due voci---Bracciano---A.Frei---1646. Editor : André Vierendeels (19/11/16).
T:Notes : Original clefs : C1, F4 Music compiled by Florido Silvestri Barbarano Figures in BC are notated in original print
T:Belle Stelluzze d'oro
T:©
T:©
T:©
T:©
C:Florido (Silvestri?)
Z:©
%%score 1 2
L:1/8
Q:1/4=98
M:4/4
K:F
V:1 treble nm="Soprano" snm="S"
V:2 bass nm="MusicXML Part"
V:1
 G2 GA BA Bc | A2 A2 z2 f2 | _edcB A2 c2- | c2 de c4 | B2 z d cBAG | ^F2 A4 Bc | A4 G4 | %7
w: Bel- le dtel- luz- * ze _|d'o- o, deh|gia sa- pe- te pur, che|_ per voi mo-|ro, deh gia sa- pe- te|pur, che per voi|mo- ro,|
 B2 Bc _A2 AG | G2 G2 z2 B2 | =B3 c c2 c2 | z2 c2 ^c3 d | d2 dA BAGF | E4 D4 :: %13
w: on- de se lan- gue il|co- re, pie-|ta chieg- gi- o,|pie- ta, chieg-|gi- o con un so- spir d'A-|mo- re,|
[M:6/4] d2 c2 B2 A2 F2 c2- | c2 B2 A2 G4 G2 | B2 A2 G2 ^F2 D2 G2- | G2 A2 B2 G4 G2 | %17
w: se m'in- qui- ta- te, deh|_ non tar- da- te,|deh non e ga- te, deh|_ non tar- da- te,|
[M:4/4] z2 A2 B3 A | BA Bc d4 | d2 de cd Bc | A4 A2 fg | ef ^ce defg | e4 d4 | z2 de cd Bc | %24
w: poi che non|m'è _ con _ ces-|so, nè _ ho- * no- *|rar- vi, nè _|di _ mi- * rar- * vi, ap-|pres- so,|nè _ dho- * no- *|
 A4 A2 Bc | AB ^FA GABc | A4 G2 A/B/c/A/ | B2 c/A/B/c/ dc/B/ A/B/c/A/ | BA/G/ ^F/G/A/F/ GABc | %29
w: rar- vi, nè _|di _ mi- * rar- * vi, ap-|pres- so, nè _ _ _|di mi- * * * rar- * * * * * *|* * * * * * * * * vi ap-|
 A4 G4 :| %30
w: pres- so.|
V:2
"^BC" G,3 ^F, G,=F,_E,C, |"^#" D,3 C, B,,2 B,2 | _E,F, G,2 F,3 E, |"^7 6""^6\n5" D,4 _E,2 F,2 | %4
 B,,4 C,D, _E,2 |"^7 6" D,3 C, B,,4 | C,2 D,2 G,,4 |"^4\n2" _E,4 E,2 D,2 | _E,4 E,4 | %9
"^-natural 6" D,4 C,4 | C,2 C2 A,2 G,2 | ^F,4 G,4 |"^4 3" A,4 D,4 ::[M:6/4] B,2 A,2 G,2 F,4 F,,2 | %14
 A,,2 B,,4 C,6 | G,2 F,2 _E,2 D,4 B,,2 | C,4 D,2 G,,4 G,,2 |[M:4/4] D,4 G,3 D, | G,2 F,2 B,,4 | %19
 B,,2 B,2 A,2 G,2 | F,4 F,4 | G,2 A,2 B,2 F,2 | G,2 A,2 D,3 C, | B,,2 B,2 F,2 G,2 | D,6 B,,2 | %25
 C,2 D,2 _E,2 B,,2 | C,2 D,2 G,2 ^F,2 | G,2 A,2 B,2 ^F,2 | G,2 D,2 _E,2 B,,2 | %29
"^6 5" C,2 D,2 G,,4 :| %30

